X: 1
T: BONANZA -- HORNPIPE
B: Ryan's Mammoth Collection of Fiddle Tunes
R: hornpipe
M: 2/4
L: 1/16
Z: Contributed 20010926175009 by John Chambers jmchambers:rcn.net
K: D
uA2 \
| d2(df) egfa | g2g2 gfeg | fadf Bgec | dcdf aABc |
| dcdf edeg | fefa gfgb | afdf eac"4"e | d2d2d2 :|
|: (uef) \
| gece AAde | fdAd FAdf | edge c"4"eAc | dcdf a2(ef) |
| gbec Aceg | fafd FAdf | egBG EAce | d2d2d2 :|
